public/static/img/crypto/DASH.svg

<svg width="32" height="32" viewBox="0 0 32 32" fill="none" xmlns="http://www.w3.org/2000/svg">
<g clip-path="url(#clip0_696_7376)">
<path d="M31.8641 15.9575C31.8641 24.7503 24.7365 31.8779 15.9437 31.8779C7.15098 31.8779 0.0232544 24.7503 0.0232544 15.9575C0.0232544 7.16483 7.15098 0.0371094 15.9437 0.0371094C24.7365 0.0371094 31.8641 7.16483 31.8641 15.9575Z" fill="#0986D3"/>
<path d="M26.3809 13.7805L24.1186 20.331C23.887 21.0024 23.4518 21.5848 22.8736 21.9972C22.2954 22.4096 21.603 22.6314 20.8928 22.6318H7.04095L8.10762 19.1977H20.8779L23.1272 12.686H10.1294L11.196 9.25195H23.1551C24.2562 9.25195 25.2948 9.78847 25.9345 10.6856C26.25 11.1286 26.4551 11.6406 26.5327 12.179C26.6104 12.7173 26.5583 13.2664 26.3809 13.7805Z" fill="white"/>
<path d="M15.5851 14.2251V14.4419L14.587 17.6591H5.31946L6.38612 14.2251H15.5851Z" fill="white"/>
</g>
<defs>
<clipPath id="clip0_696_7376">
<rect width="32" height="32" fill="white"/>
</clipPath>
</defs>
</svg>

<svg width="32" height="32" fill="none" xmlns="http://www.w3.org/2000/svg"><g clip-path="url(#a)"><path d="M31.864 15.957c0 8.793-7.128 15.92-15.92 15.92-8.793 0-15.92-7.127-15.92-15.92C.023 7.165 7.15.037 15.943.037c8.792 0 15.92 7.128 15.92 15.92Z" fill="#0986D3"/><path d="m26.38 13.78-2.261 6.551a3.414 3.414 0 0 1-3.226 2.3H7.04l1.067-3.433h12.77l2.25-6.512H10.128l1.067-3.434h11.96a3.42 3.42 0 0 1 3.377 2.927 3.414 3.414 0 0 1-.152 1.601Z" fill="#fff"/><path d="M15.585 14.225v.217l-.998 3.217H5.319l1.067-3.434h9.2Z" fill="#fff"/></g><defs><clipPath id="a"><path fill="#fff" d="M0 0h32v32H0z"/></clipPath></defs></svg>
